X: 33882
T: Red Haired Man's Wife, The
R: waltz
M: 3/4
K: Dmajor
cd|:e2 fdec|d3 fec|A4 GF|G2 A2 c2|d4 cd|
e2 fdec|d3 fec|A4 GA|E2 D2 D2|D4:|
=cB|:A2 G2 EF|D3 EF2|G3 AGF|G2 A2 Bc|d4 A/B/c/d/|
eg fd ec|d3 fec|A4 GA|E2 D2 D2|D4:|

